X: 26682
T: Mie Moghrey Dhyts Y Gherjagh
R: reel
M: 4/4
K: Amajor
E2|A3Ac2B2|A3FA2F2|E3FA2c2|B6cd|
e3ec2BA|A3FA2F2|E3FA2A2|A6cd|
e2c2A2e2|f2e2a2f2|e2c2A2Bc|d6cd|
e2e2c2BA|A3FA2F2|E3FA2A2|A6|

